src/icons/solid/metrics/metric-custom.svg

<svg width="24" height="24" viewBox="0 0 24 24" fill="none" xmlns="http://www.w3.org/2000/svg">
<g clip-path="url(#clip0_4837_334)">
<path d="M17.2891 11.4814C17.3191 11.4814 17.3492 11.4884 17.376 11.502C17.4016 11.5188 17.4231 11.5422 17.4375 11.5693C17.4518 11.5964 17.4594 11.6266 17.459 11.6572V11.9775C17.454 13.1192 17.0921 14.2308 16.4248 15.1572C15.7573 16.0838 14.817 16.7792 13.7354 17.1455C12.6537 17.5118 11.4847 17.5306 10.3916 17.2002C9.29849 16.8698 8.33539 16.2068 7.6377 15.3027C7.61485 15.2471 7.61485 15.1845 7.6377 15.1289C7.64441 15.0993 7.65779 15.0716 7.67676 15.0479C7.69566 15.0242 7.71977 15.0052 7.74707 14.9922L12.1875 12.6074H12.2422L17.2031 11.502C17.2298 11.4885 17.2592 11.4815 17.2891 11.4814Z" fill="#3C3B44"/>
<path d="M11.5566 6.49609C11.5924 6.49299 11.629 6.49861 11.6621 6.5127C11.6948 6.52672 11.7237 6.54851 11.7461 6.57617C11.7686 6.60412 11.7842 6.6376 11.791 6.67285C11.7978 6.70815 11.7958 6.74496 11.7852 6.7793L11.4199 11.502C11.4189 11.538 11.4078 11.573 11.3887 11.6035C11.3694 11.634 11.3426 11.6594 11.3105 11.6758L7.14453 13.9326C7.11604 13.9464 7.08437 13.9531 7.05273 13.9531C7.02132 13.9531 6.99023 13.9462 6.96191 13.9326C6.93308 13.9229 6.90646 13.9061 6.88574 13.8838C6.86508 13.8615 6.85035 13.8341 6.84277 13.8047C6.62065 13.2209 6.50361 12.6021 6.49609 11.9775C6.49202 10.5938 7.01145 9.25887 7.9502 8.24219C8.88887 7.22579 10.1772 6.6022 11.5566 6.49609Z" fill="#3C3B44"/>
<path d="M13.3018 6.59668C14.1524 6.80295 14.9414 7.20954 15.6025 7.7832C16.2637 8.35698 16.7785 9.08127 17.1025 9.89453C17.1251 9.94988 17.1251 10.012 17.1025 10.0674C17.0871 10.0946 17.066 10.1189 17.041 10.1377C17.0159 10.1566 16.9867 10.1705 16.9561 10.1777L12.9912 11.0908C12.9594 11.098 12.9262 11.0977 12.8945 11.0898C12.8629 11.082 12.8334 11.067 12.8086 11.0459C12.7838 11.0246 12.7636 10.997 12.751 10.9668C12.7385 10.9369 12.7332 10.9044 12.7354 10.8721L13.0459 6.81543C13.0498 6.78482 13.0596 6.75513 13.0752 6.72852C13.0909 6.70182 13.1127 6.67849 13.1377 6.66016C13.158 6.63721 13.1834 6.61949 13.2119 6.6084C13.2405 6.59729 13.2713 6.59341 13.3018 6.59668Z" fill="#3C3B44"/>
<path fill-rule="evenodd" clip-rule="evenodd" d="M12.0225 1C12.4701 1 12.9073 1.13806 13.2734 1.39551C13.6397 1.65316 13.918 2.018 14.0693 2.43945L14.4805 3.59082C14.5375 3.75731 14.6298 3.90951 14.751 4.03711C14.8724 4.16482 15.02 4.2656 15.1836 4.33105C15.3433 4.40121 15.516 4.43745 15.6904 4.4375C15.865 4.4375 16.0384 4.40126 16.1982 4.33105L17.3125 3.80078C17.7164 3.60791 18.1702 3.5445 18.6113 3.62012C19.0526 3.69583 19.4598 3.90703 19.7764 4.22363C20.093 4.54023 20.3042 4.94738 20.3799 5.38867C20.4555 5.82982 20.3921 6.2836 20.1992 6.6875L19.6055 7.80176C19.5353 7.96158 19.499 8.13501 19.499 8.30957C19.4991 8.484 19.5353 8.6567 19.6055 8.81641C19.6709 8.97994 19.7708 9.12766 19.8984 9.24902C20.0261 9.3704 20.179 9.46245 20.3457 9.51953L21.4961 9.93066H21.5605L21.7158 9.99316C22.0715 10.1527 22.379 10.4061 22.6045 10.7266C22.8619 11.0927 23 11.5299 23 11.9775C22.9999 12.4252 22.8621 12.8623 22.6045 13.2285C22.3469 13.5947 21.982 13.8721 21.5605 14.0234L20.4092 14.4346C20.2427 14.4916 20.0905 14.5839 19.9629 14.7051C19.8352 14.8264 19.7344 14.9742 19.6689 15.1377C19.5987 15.2975 19.5625 15.471 19.5625 15.6455C19.5626 15.8199 19.5988 15.9926 19.6689 16.1523L20.1992 17.2666C20.4198 17.6765 20.5022 18.1469 20.4346 18.6074C20.3669 19.0679 20.1524 19.4941 19.8232 19.8232C19.4941 20.1524 19.0679 20.3669 18.6074 20.4346C18.1469 20.5022 17.6765 20.4198 17.2666 20.1992L16.1523 19.6689C15.9926 19.5988 15.8199 19.5626 15.6455 19.5625C15.471 19.5625 15.2975 19.5987 15.1377 19.6689C14.9742 19.7344 14.8264 19.8352 14.7051 19.9629C14.5839 20.0905 14.4916 20.2427 14.4346 20.4092L14.0234 21.5605C13.8721 21.982 13.5947 22.3469 13.2285 22.6045C12.8623 22.8621 12.4252 22.9999 11.9775 23C11.5299 23 11.0927 22.8619 10.7266 22.6045C10.3603 22.3468 10.082 21.982 9.93066 21.5605L9.51953 20.4092C9.46249 20.2427 9.37023 20.0905 9.24902 19.9629C9.12762 19.8352 8.98001 19.7344 8.81641 19.6689C8.6567 19.5988 8.484 19.5626 8.30957 19.5625C8.13501 19.5625 7.96158 19.5987 7.80176 19.6689L6.6875 20.1992C6.27882 20.4022 5.81622 20.471 5.36621 20.3955C4.91634 20.32 4.50169 20.1043 4.18164 19.7793C3.8616 19.4542 3.65244 19.036 3.58398 18.585C3.51559 18.1338 3.59142 17.6721 3.80078 17.2666L4.33105 16.1523C4.4012 15.9926 4.43745 15.8199 4.4375 15.6455C4.4375 15.471 4.40126 15.2975 4.33105 15.1377C4.2656 14.9742 4.16477 14.8264 4.03711 14.7051C3.90952 14.5839 3.75729 14.4916 3.59082 14.4346L2.43945 14.0234C2.01804 13.8721 1.65314 13.5947 1.39551 13.2285C1.13792 12.8623 1.00008 12.4252 1 11.9775C1 11.5299 1.13806 11.0927 1.39551 10.7266C1.65316 10.3603 2.018 10.082 2.43945 9.93066L3.59082 9.51953C3.75731 9.46248 3.90951 9.37023 4.03711 9.24902C4.16482 9.12762 4.2656 8.98 4.33105 8.81641C4.40121 8.6567 4.43745 8.484 4.4375 8.30957C4.4375 8.13501 4.40126 7.96158 4.33105 7.80176L3.80078 6.6875C3.60791 6.2836 3.5445 5.82982 3.62012 5.38867C3.69583 4.94738 3.90703 4.54023 4.22363 4.22363C4.54023 3.90703 4.94738 3.69583 5.38867 3.62012C5.82982 3.5445 6.2836 3.60791 6.6875 3.80078L7.80176 4.34863C7.96158 4.41883 8.13501 4.45508 8.30957 4.45508C8.484 4.45503 8.6567 4.41879 8.81641 4.34863C8.97991 4.28318 9.12768 4.18331 9.24902 4.05566C9.37024 3.9281 9.46246 3.77583 9.51953 3.60938L9.97656 2.43945C10.1279 2.01804 10.4053 1.65314 10.7715 1.39551C11.1377 1.13792 11.5748 1.00008 12.0225 1ZM14.6182 5.64355C12.9305 4.94843 11.0373 4.94253 9.3457 5.62793C7.6632 6.32706 6.32699 7.66529 5.62988 9.34863C4.93278 11.0323 4.93187 12.9243 5.62793 14.6084C6.17188 15.8446 7.0591 16.899 8.18457 17.6455C9.31011 18.3921 10.6271 18.799 11.9775 18.8193C12.8761 18.8554 13.7724 18.7033 14.6084 18.3721C15.4511 18.0305 16.2181 17.5255 16.8643 16.8857C17.5105 16.2459 18.023 15.4838 18.373 14.6445C18.7231 13.8051 18.9035 12.9046 18.9033 11.9951C18.9031 11.0857 18.7225 10.1849 18.3721 9.3457C17.654 7.66773 16.3058 6.33875 14.6182 5.64355Z" fill="#3C3B44"/>
</g>
<defs>
<clipPath id="clip0_4837_334">
<rect width="24" height="24" fill="white"/>
</clipPath>
</defs>
</svg>

<svg xmlns="http://www.w3.org/2000/svg" width="24" height="24" fill="none" viewBox="0 0 24 24"><g fill="currentColor" clip-path="url(#a)"><path d="M17.29 11.481q.046 0 .086.021a.19.19 0 0 1 .083.155v.32a5.482 5.482 0 0 1-9.821 3.326.23.23 0 0 1 0-.174.2.2 0 0 1 .11-.137l4.44-2.385h.054l4.961-1.105a.2.2 0 0 1 .086-.02m-5.732-4.986a.22.22 0 0 1 .19.08.22.22 0 0 1 .038.203l-.365 4.723a.2.2 0 0 1-.11.174l-4.165 2.257a.21.21 0 0 1-.183 0 .19.19 0 0 1-.12-.128 5.3 5.3 0 0 1-.346-1.828 5.483 5.483 0 0 1 5.06-5.48m1.746.1a5.48 5.48 0 0 1 3.8 3.298.23.23 0 0 1 0 .172.23.23 0 0 1-.146.11l-3.965.914a.21.21 0 0 1-.256-.219l.31-4.057a.23.23 0 0 1 .093-.155.2.2 0 0 1 .164-.063"/><path fill-rule="evenodd" d="M12.023 1a2.175 2.175 0 0 1 2.046 1.44l.411 1.15a1.22 1.22 0 0 0 .704.741 1.26 1.26 0 0 0 1.014 0l1.114-.53A2.165 2.165 0 0 1 20.2 6.688l-.594 1.114a1.26 1.26 0 0 0 0 1.014 1.23 1.23 0 0 0 .74.704l1.151.41h.065l.155.063a2.177 2.177 0 0 1 .889 3.236 2.17 2.17 0 0 1-1.044.794l-1.152.412a1.22 1.22 0 0 0-.74.703 1.26 1.26 0 0 0 0 1.014l.53 1.115a2.166 2.166 0 0 1-2.932 2.932l-1.115-.53a1.26 1.26 0 0 0-1.014 0 1.23 1.23 0 0 0-.703.74l-.412 1.152a2.174 2.174 0 0 1-4.092 0l-.411-1.152a1.22 1.22 0 0 0-.704-.74 1.26 1.26 0 0 0-1.014 0l-1.114.53A2.165 2.165 0 0 1 3.8 17.267l.53-1.115a1.26 1.26 0 0 0 0-1.014 1.23 1.23 0 0 0-.74-.703l-1.152-.412a2.175 2.175 0 0 1 0-4.092L3.59 9.52a1.22 1.22 0 0 0 .74-.704 1.26 1.26 0 0 0 0-1.014L3.8 6.688A2.165 2.165 0 0 1 6.688 3.8l1.114.548a1.26 1.26 0 0 0 1.014 0 1.23 1.23 0 0 0 .704-.74l.457-1.17A2.175 2.175 0 0 1 12.023 1m2.595 4.644a6.97 6.97 0 0 0-5.272-.016 6.88 6.88 0 0 0-3.718 8.98 7.05 7.05 0 0 0 6.35 4.211 6.4 6.4 0 0 0 2.63-.447 6.88 6.88 0 0 0 3.764-9.026 6.97 6.97 0 0 0-3.754-3.702" clip-rule="evenodd"/></g><defs><clipPath id="a"><path fill="currentColor" d="M0 0h24v24H0z"/></clipPath></defs></svg>
